X:330
T:Tin-Ware Lass Reel
M:4/4
L:1/8
Z:abc by Bruce Osborne - bosborne@kos.net
K:G
BA|GABc d2 ef|gfga gedB|c2 ce dBGA|B2 A2 A2 BA|!
GABc d2 ef|gfga gedB|c2 ce dBAB|G2 GG G2:|!
|:fg|a2 ff d2 ef|g2 GG G2 ge|dBge dBGA|B2 A2 A2 BA|!
GABc d2 ef|gfga gedB|c2 ce dBAB|G2 GG G2:|!
